svgs/thin/trash-list.svg

<svg xmlns="http://www.w3.org/2000/svg" viewBox="0 0 640 512"><!--! Font Awesome Pro 6.3.0 by @fontawesome - https://fontawesome.com License - https://fontawesome.com/license (Commercial License) Copyright 2023 Fonticons, Inc. --><path d="M115.6 64L143.8 18.8C151.1 7.105 163.9 0 177.7 0H238.3C252.1 0 264.9 7.105 272.2 18.8L300.4 64H408C412.4 64 416 67.58 416 72C416 76.42 412.4 80 408 80H8C3.582 80 0 76.42 0 72C0 67.58 3.582 64 8 64H115.6zM134.4 64H281.6L258.6 27.28C254.2 20.26 246.5 16 238.3 16H177.7C169.5 16 161.8 20.26 157.4 27.28L134.4 64zM39.34 112C43.74 111.7 47.61 114.9 47.97 119.3L76.3 459.3C78.03 480.1 95.36 496 116.2 496H299.8C320.6 496 337.1 480.1 339.7 459.3L368 119.3C368.4 114.9 372.3 111.7 376.7 112C381.1 112.4 384.3 116.3 383.1 120.7L355.6 460.6C353.2 489.7 328.1 512 299.8 512H116.2C87.04 512 62.78 489.7 60.36 460.6L32.03 120.7C31.66 116.3 34.93 112.4 39.34 112V112zM632 128C636.4 128 640 131.6 640 136C640 140.4 636.4 144 632 144H456C451.6 144 448 140.4 448 136C448 131.6 451.6 128 456 128H632zM600 256C604.4 256 608 259.6 608 264C608 268.4 604.4 272 600 272H456C451.6 272 448 268.4 448 264C448 259.6 451.6 256 456 256H600zM448 392C448 387.6 451.6 384 456 384H536C540.4 384 544 387.6 544 392C544 396.4 540.4 400 536 400H456C451.6 400 448 396.4 448 392z"/></svg>

<svg xmlns="http://www.w3.org/2000/svg" viewBox="0 0 640 512"><!--! Font Awesome Pro 6.4.0 by @fontawesome - https://fontawesome.com License - https://fontawesome.com/license (Commercial License) Copyright 2023 Fonticons, Inc. --><path d="M157.4 27.3L134.4 64H281.6l-23-36.7c-4.4-7-12.1-11.3-20.4-11.3H177.7c-8.3 0-16 4.3-20.4 11.3zM115.6 64l28.2-45.2C151.1 7.1 163.9 0 177.7 0h60.5c13.8 0 26.6 7.1 33.9 18.8L300.4 64H408c4.4 0 8 3.6 8 8s-3.6 8-8 8H8c-4.4 0-8-3.6-8-8s3.6-8 8-8H115.6zM39.3 112c4.4-.4 8.3 2.9 8.6 7.3l28.3 340C78 480.1 95.4 496 116.2 496H299.8c20.8 0 38.1-15.9 39.9-36.7l28.3-340c.4-4.4 4.2-7.7 8.6-7.3s7.7 4.2 7.3 8.6l-28.3 340c-2.4 29-26.7 51.4-55.8 51.4H116.2c-29.1 0-53.4-22.3-55.8-51.4L32 120.7c-.4-4.4 2.9-8.3 7.3-8.6zM456 128H632c4.4 0 8 3.6 8 8s-3.6 8-8 8H456c-4.4 0-8-3.6-8-8s3.6-8 8-8zm0 128H600c4.4 0 8 3.6 8 8s-3.6 8-8 8H456c-4.4 0-8-3.6-8-8s3.6-8 8-8zm-8 136c0-4.4 3.6-8 8-8h80c4.4 0 8 3.6 8 8s-3.6 8-8 8H456c-4.4 0-8-3.6-8-8z"/></svg>
